svg/quote-down-square.svg

<svg width="24" height="24" viewBox="0 0 24 24" fill="none" xmlns="http://www.w3.org/2000/svg">
<path d="M9 22H15C20 22 22 20 22 15V9C22 4 20 2 15 2H9C4 2 2 4 2 9V15C2 20 4 22 9 22Z" stroke="#292D32" stroke-width="1.5" stroke-linecap="round" stroke-linejoin="round"/>
<path d="M7 12.1599H9.68C10.39 12.1599 10.87 12.6999 10.87 13.3499V14.84C10.87 15.49 10.39 16.03 9.68 16.03H8.19C7.54 16.03 7 15.49 7 14.84V12.1599" stroke="#292D32" stroke-width="1.5" stroke-linecap="round" stroke-linejoin="round"/>
<path d="M7 12.16C7 9.36997 7.52 8.89997 9.09 7.96997" stroke="#292D32" stroke-width="1.5" stroke-linecap="round" stroke-linejoin="round"/>
<path d="M13.1399 12.1599H15.8199C16.5299 12.1599 17.0099 12.6999 17.0099 13.3499V14.84C17.0099 15.49 16.5299 16.03 15.8199 16.03H14.3299C13.6799 16.03 13.1399 15.49 13.1399 14.84V12.1599" stroke="#292D32" stroke-width="1.5" stroke-linecap="round" stroke-linejoin="round"/>
<path d="M13.1399 12.16C13.1399 9.36997 13.6599 8.89997 15.2299 7.96997" stroke="#292D32" stroke-width="1.5" stroke-linecap="round" stroke-linejoin="round"/>
</svg>

<svg xmlns="http://www.w3.org/2000/svg" width="24" height="24" fill="none"><path stroke="#292D32" stroke-linecap="round" stroke-linejoin="round" stroke-width="1.5" d="M9 22h6c5 0 7-2 7-7V9c0-5-2-7-7-7H9C4 2 2 4 2 9v6c0 5 2 7 7 7"/><path stroke="#292D32" stroke-linecap="round" stroke-linejoin="round" stroke-width="1.5" d="M7 12.16h2.68c.71 0 1.19.54 1.19 1.19v1.49c0 .65-.48 1.19-1.19 1.19H8.19A1.2 1.2 0 0 1 7 14.84zM7 12.16c0-2.79.52-3.26 2.09-4.19M13.14 12.16h2.68c.71 0 1.19.54 1.19 1.19v1.49c0 .65-.48 1.19-1.19 1.19h-1.49a1.2 1.2 0 0 1-1.19-1.19zM13.14 12.16c0-2.79.52-3.26 2.09-4.19"/></svg>
